%
(FILENAME: machinesupport260.gcode)
(TOOL/MILL,0.1,0.05,0.000,0)
G21
(STOCK/BLOCK, 640.000, 2600.000, 30.000, 24.000, 23.100, 30.000)
(TOOL/MILL,8.0000,0,60.0000,0.0)
M6 T1
G0X0.0000Y0.0000Z7.0000 F4000
G0X-12.8004Y-9.1714 F4000
G1Z-15.0000F2000.0
G1F2000.0
G1Y9.8635
G1X-5.8004Y15.1955
G1Y-14.5725
G1X1.1996Y-15.5809
G1Y16.3283
G1Z-8.0000
G1X4.6996Y11.0584
G1X15.1996Y-4.7511
G1Z-15.0000
G1Y4.3105
G1Y5.1393Z-20.0000
G1Y2582.2363
G1X22.1996
G1Y5.1255
G1X29.1996Y5.1393
G1Y2582.2363
G1X36.1996
G1Y5.1255
G1X43.1996Y5.1393
G1Y2582.2363
G1X50.1996
G1Y5.1255
G1X57.1996Y5.1393
G1Y2582.2363
G1X64.1996
G1Y5.1255
G1X71.1996Y5.1393
G1Y2582.2363
G1X78.1996
G1X78.1996Y5.1255
G1X85.1996Y5.1393
G1Y2582.2363
G1X92.1996
G1Y5.1255
G1X99.1996Y5.1393
G1Y2582.2363
G1X106.1996
G1Y5.1255
G1X113.1996Y5.1393
G1Y2582.2363
G1X120.1996
G1Y5.1255
G1X127.1996Y5.1393
G1Y2582.2363
G1X134.1996
G1Y4.2415
G0Z7.0000 F4000
G0X449.1996Y5.1393 F4000
G1Z-20.0000F2000.0
G1F2000.0
G1Y2582.2363
G1X456.1996
G1Y5.1255
G1X463.1996Y5.1393
G1Y2582.2363
G1X470.1996
G1Y5.1255
G1X477.1996Y5.1393
G1Y2582.2363
G1X484.1996
G1Y5.1255
G1X491.1996Y5.1393
G1Y2582.2363
G1X498.1996
G1Y5.1255
G1X505.1996Y5.1393
G1Y2582.2363
G1X512.1996
G1Y5.1255
G1X519.1996Y5.1393
G1Y2582.2363
G1X526.1996
G1Y5.1255
G1X533.1996Y5.1393
G1Y2582.2363
G1X540.1996
G1Y5.1255
G1X547.1996Y5.1393
G1Y2582.2363
G1X554.1996
G1Y5.1255
G1X561.1996Y5.1393
G1Y2582.2363
G1X568.1996
G1Y5.1255
G1X575.1996Y5.1393
G1Y2582.2363
G1X582.1996
G1Y5.1255
G1X589.1996Y5.1393
G1Y2582.2363
G1X596.1996
G1Y5.1255
G1X603.1996Y5.1393
G1Y2582.2363
G1X610.1996
G1Y5.1255
G1X617.1996Y5.1393
G1Y2582.2363
G0Z7.0000 F4000
G0X4.8637 F4000
G1Z-20.0000F2000.0
G1F2000.0
G1X8.1996
G1Y5.1255
G1Y4.3105Z-15.0000
G1Y-13.4260
G0Z7.0000 F4000
G0X135.7003Y2582.1860 F4000
G1Z-30.0000F2000.0
G1F2000.0
G1Y-21.8942
G0Z7.0000 F4000
G0X1.5369Y1.8702 F4000
G1Z-20.0000F2000.0
G1F2000.0
G1X2.2209Y1.6357
G1X4.7224Y3.6486
G1X5.9732Y4.2154
G1X7.2239Y4.3326
G1X18.4808
G1Z-17.4600
G1X4.8407Y18.5448
G1X4.0384Y19.3808
G1Z-20.0000
G1Y5.6225
G1X3.7843Y4.3717
G1X3.4716Y3.7268
G1X3.0222Y3.1210
G0Z7.0000 F4000
G0X445.4000Y1.8702 F4000
G1Z-20.0000F2000.0
G1F2000.0
G1X446.2208Y3.1210
G1X447.4911Y4.0004
G1X448.7419Y4.3131
G1X449.9926Y4.3326
G1X618.8450
G0Z7.0000 F4000
G0X4.0384Y2582.1860 F4000
G1Z-20.0000F2000.0
G1F2000.0
G1Y20.6316
G1X3.9407Y19.3808Z-15.0000
G1X3.3935Y18.1301
G1X2.2209Y16.9575
G1X0.9701Y16.4298
G1X0.9700Y16.4280
G1X-0.7794Y16.4426
G1X-2.5201Y16.2671
G1X-4.2314Y15.9034
G1X-5.8930Y15.3560
G1X-7.4853Y14.6313
G1X-8.9895Y13.7379
G1X-10.3877Y12.6864
G1X-11.6634Y11.4891
G1X-12.8014Y10.1604
G1X-13.7883Y8.7159
G1X-14.6125Y7.1727
G1X-15.2641Y5.5491
G1X-15.7354Y3.8643
G1X-16.0209Y2.1382
G1X-16.1172Y0.3914
G1X-16.0231Y-1.3556
G1X-15.7398Y-3.0820
G1X-15.2706Y-4.7673
G1X-14.6210Y-6.3918
G1X-13.7988Y-7.9360
G1X-12.8137Y-9.3818
G1X-11.6773Y-10.7120
G1X-10.4032Y-11.9108
G1X-9.0063Y-12.9641
G1X-7.5033Y-13.8594
G1X-5.9118Y-14.5861
G1X-4.2509Y-15.1356
G1X-2.5401Y-15.5014
G1X-0.7996Y-15.6791
G1X0.9498Y-15.6667
G1X2.6875Y-15.4643
G1X4.3930Y-15.0743
G1X6.0460Y-14.5013
G1X7.6269Y-13.7521
G1X9.1171Y-12.8356
G1X10.4989Y-11.7626
G1X11.7559Y-10.5458
G1X12.8733Y-9.1996
G1X13.8378Y-7.7400
G1X14.6380Y-6.1843
G1X15.2645Y-4.5508
G1X15.7098Y-2.8589
G1X15.9686Y-1.1287
G1X16.0379Y0.6195
G1X16.3310Y1.8702
G1X17.2300Y3.1796
G1X18.4808Y4.0200
G1X19.7315Y4.3326Z-20.0000
G1X131.0491
G1X132.2998Y4.2936
G1X133.5506Y3.8636
G1X134.5473Y3.1210
G1X134.8013Y2.8474
G1X135.3876Y1.8702
G0Z7.0000 F4000
G0X445.0873Y2582.1860 F4000
G1Z-30.0000F2000.0
G1F2000.0
G1Y-21.8942
G0Z7.0000 F4000
(END)
(OF PROGRAM)
