%
(FILENAME: machinesupport.gcode)
(TOOL/MILL,0.1,0.05,0.000,0)
G21
(STOCK/BLOCK, 640.000, 2200.000, 30.000, 24.000, 23.000, 30.000)
(TOOL/MILL,8.0000,0,60.0000,0.0)
M6 T1
G0X0.0000Y0.0000Z7.0000 F4000
G0X-12.8004Y-9.1741 F4000
G1Z-15.0000F2000.0
G1F2000.0
G1Y9.8708
G1X-5.8004Y15.1879
G1Y-14.5741
G1X1.1996Y-15.6099
G1Y16.3341
G1Z-8.0000
G1X3.8246Y12.3800
G1X15.1996Y-4.7547
G1Z-15.0000
G1Y4.3051
G1Y5.1890Z-20.0000
G1Y2182.1865
G1X22.1996
G1Y5.1337
G1X29.1996Y5.1890
G1Y2182.1865
G1X36.1996
G1Y5.1337
G1X43.1996Y5.1890
G1Y2182.1865
G1X50.1996
G1Y5.1337
G1X57.1996Y5.1890
G1Y2182.1865
G1X64.1996
G1Y5.1337
G1X71.1996Y5.1890
G1Y2182.1865
G1X78.1996
G1X78.1996Y5.1337
G1X85.1996Y5.1890
G1Y2182.1865
G1X92.1996
G1Y5.1337
G1X99.1996Y5.1890
G1Y2182.1865
G1X106.1996
G1Y5.1337
G1X113.1996Y5.1890
G1Y2182.1865
G1X120.1996
G1Y5.1337
G1X127.1996Y5.1890
G1Y2182.1865
G1X134.1996
G1Y2162.7412
G1Y2159.2056
G1Y4.2360
G0Z7.0000 F4000
G0X449.1996Y5.1890 F4000
G1Z-20.0000F2000.0
G1F2000.0
G1Y2182.1865
G1X456.1996
G1Y5.1337
G1X463.1996Y5.1890
G1Y2182.1865
G1X470.1996
G1Y5.1337
G1X477.1996Y5.1890
G1Y2182.1865
G1X484.1996
G1Y5.1337
G1X491.1996Y5.1890
G1Y2182.1865
G1X498.1996
G1Y5.1337
G1X505.1996Y5.1890
G1Y2182.1865
G1X512.1996
G1Y5.1337
G1X519.1996Y5.1890
G1Y2182.1865
G1X526.1996
G1Y5.1337
G1X533.1996Y5.1890
G1Y2182.1865
G1X540.1996
G1Y5.1337
G1X547.1996Y5.1890
G1Y2182.1865
G1X554.1996
G1Y5.1337
G1X561.1996Y5.1890
G1Y2182.1865
G1X568.1996
G1Y5.1337
G1X575.1996Y5.1890
G1Y2182.1865
G1X582.1996
G1Y5.1337
G1X589.1996Y5.1890
G1Y2182.1865
G1X596.1996
G1Y5.1337
G1X603.1996Y5.1890
G1Y2182.1865
G1X610.1996
G1Y5.1337
G1X617.1996Y5.1890
G1Y2182.1865
G0Z7.0000 F4000
G0X4.8637 F4000
G1Z-20.0000F2000.0
G1F2000.0
G1X8.1996
G1Y5.1337
G1Y4.3051Z-15.0000
G1Y-13.4278
G0Z7.0000 F4000
G0X135.7003Y2182.0430 F4000
G1Z-30.0000F2000.0
G1F2000.0
G1Y-21.7942
G0Z7.0000 F4000
G0X0.0711Y0.7194 F4000
G1Z-20.0000F2000.0
G1F2000.0
G1X0.9701Y0.6803
G1X1.0483Y0.7194
G1X3.4716Y2.6151
G1X4.7224Y3.6509
G1X5.9732Y4.2176
G1X7.2239Y4.3349
G1X18.4808
G1Z-17.4600
G1X16.0737Y6.8592
G1X4.0384Y19.4808
G1Z-20.0000
G1Y5.7225
G1X3.8234Y4.4717
G0Z7.0000 F4000
G0X445.4390Y1.9702 F4000
G1Z-20.0000F2000.0
G1F2000.0
G1X446.2403Y3.1232
G1X446.3380Y3.2209
G1X447.4911Y4.0027
G1X448.7419Y4.3154
G1X449.9926Y4.3349
G1X618.8450
G0Z7.0000 F4000
G0X4.0384Y2182.0430 F4000
G1Z-20.0000F2000.0
G1F2000.0
G1Y20.7316
G1X3.9602Y19.4808Z-15.0000
G1X3.4521Y18.2301
G1X2.2404Y16.9793
G1X0.9701Y16.4125
G1X0.9700Y16.4110
G1X-0.7815Y16.4250
G1X-2.5242Y16.2482
G1X-4.2373Y15.8830
G1X-5.9005Y15.3335
G1X-7.4941Y14.6063
G1X-8.9991Y13.7100
G1X-10.3976Y12.6554
G1X-11.6730Y11.4548
G1X-12.8103Y10.1226
G1X-13.7959Y8.6745
G1X-14.6180Y7.1278
G1X-15.2670Y5.5009
G1X-15.7352Y3.8130
G1X-16.0169Y2.0842
G1X-16.1088Y0.3350
G1X-16.0099Y-1.4139
G1X-15.7213Y-3.1416
G1X-15.2464Y-4.8276
G1X-14.5909Y-6.4519
G1X-13.7625Y-7.9953
G1X-12.7712Y-9.4394
G1X-11.6286Y-10.7671
G1X-10.3484Y-11.9625
G1X-8.9456Y-13.0116
G1X-7.4371Y-13.9018
G1X-5.8407Y-14.6227
G1X-4.1753Y-15.1655
G1X-2.4607Y-15.5239
G1X-0.7173Y-15.6937
G1X1.0342Y-15.6727
G1X2.7730Y-15.4613
G1X4.4785Y-15.0620
G1X6.1304Y-14.4795
G1X7.7091Y-13.7207
G1X9.1960Y-12.7946
G1X10.5732Y-11.7123
G1X11.8245Y-10.4866
G1X12.9350Y-9.1320
G1X13.8915Y-7.6646
G1X14.6827Y-6.1018
G1X15.2992Y-4.4623
G1X15.7336Y-2.7654
G1X15.9808Y-1.0313
G1X16.0379Y0.7194
G1X16.3896Y1.9702
G1X17.2691Y3.2209
G1X18.4808Y4.0222
G1X19.7315Y4.3349Z-20.0000
G1X131.0491
G1X132.2998Y4.2763
G1X133.5506Y3.8659
G1X134.4496Y3.2209
G1X134.8013Y2.8496
G1X135.3485Y1.9702
G0Z7.0000 F4000
G0X445.0873Y2182.0430 F4000
G1Z-30.0000F2000.0
G1F2000.0
G1Y-21.7942
G0Z7.0000 F4000
(END)
(OF PROGRAM)
